build/system/CloseFullscreenOutline.svg

<svg xmlns="http://www.w3.org/2000/svg" fill="none" viewBox="0 0 24 24" focusable="false"><path d="M0 0H24V24H0z"/><path fill="#74767B" fill-rule="evenodd" d="M7.79301 6.88075L7.79301 4.9496C7.79301 4.59061 8.08402 4.2996 8.44301 4.2996C8.80199 4.2996 9.09301 4.59061 9.09301 4.9496L9.09301 7.75012C9.09301 8.4957 8.48859 9.10012 7.74301 9.10012L4.94249 9.10012C4.5835 9.10012 4.29249 8.8091 4.29249 8.45012C4.29249 8.09113 4.5835 7.80012 4.94249 7.80012L6.8739 7.80012L4.18704 5.11328C3.9332 4.85944 3.9332 4.44789 4.18704 4.19404C4.44088 3.9402 4.85244 3.9402 5.10628 4.19404L7.79301 6.88075ZM4.29203 15.5462C4.29203 15.1872 4.58305 14.8962 4.94203 14.8962L7.74255 14.8962C8.48813 14.8962 9.09255 15.5006 9.09255 16.2462L9.09255 19.0467C9.09255 19.4057 8.80153 19.6967 8.44255 19.6967C8.08356 19.6967 7.79255 19.4057 7.79255 19.0467L7.79255 17.1153L5.10571 19.8022C4.85188 20.056 4.44032 20.056 4.18648 19.8022C3.93263 19.5483 3.93263 19.1368 4.18647 18.8829L6.87318 16.1962L4.94203 16.1962C4.58305 16.1962 4.29203 15.9052 4.29203 15.5462ZM14.9049 19.0545C14.9049 19.4135 15.1959 19.7045 15.5549 19.7045C15.9138 19.7045 16.2049 19.4135 16.2049 19.0545L16.2049 17.1234L18.8916 19.8101C19.1454 20.0639 19.557 20.0639 19.8108 19.8101C20.0647 19.5563 20.0647 19.1447 19.8108 18.8909L17.124 16.204L19.0554 16.204C19.4144 16.204 19.7054 15.913 19.7054 15.554C19.7054 15.195 19.4144 14.904 19.0554 14.904L16.2549 14.904C15.5093 14.904 14.9049 15.5084 14.9049 16.254L14.9049 19.0545ZM19.7009 8.45012C19.7009 8.8091 19.4099 9.10012 19.0509 9.10012L16.2504 9.10012C15.5048 9.10012 14.9004 8.4957 14.9004 7.75012L14.9004 4.9496C14.9004 4.59062 15.1914 4.2996 15.5504 4.2996C15.9094 4.2996 16.2004 4.59062 16.2004 4.9496L16.2004 6.88101L18.8873 4.19416C19.1411 3.94031 19.5527 3.94031 19.8065 4.19415C20.0603 4.44799 20.0603 4.85955 19.8065 5.11339L17.1198 7.80012L19.0509 7.80012C19.4099 7.80012 19.7009 8.09113 19.7009 8.45012Z"/></svg>

<svg xmlns="http://www.w3.org/2000/svg" fill="none" viewBox="0 0 24 24" focusable="false"><path fill="#74767B" fill-rule="evenodd" d="M7.79 6.88V4.94c0-.35.29-.65.65-.65s.65.3.65.65v2.81c0 .74-.61 1.35-1.35 1.35h-2.8c-.36 0-.65-.3-.65-.65 0-.36.29-.65.65-.65h1.93L4.18 5.11a.66.66 0 0 1 0-.92c.26-.25.67-.25.92 0zm-3.5 8.66c0-.36.29-.65.65-.65h2.8c.74 0 1.35.61 1.35 1.35v2.8c0 .36-.29.65-.65.65s-.65-.29-.65-.65v-1.93L5.1 19.8c-.25.25-.66.25-.92 0a.66.66 0 0 1 0-.92l2.69-2.69H4.94c-.36 0-.65-.29-.65-.65m10.61 3.51c0 .36.29.65.65.65s.65-.29.65-.65v-1.93l2.69 2.69c.25.25.66.25.92 0 .25-.26.25-.67 0-.92l-2.69-2.69h1.93c.36 0 .65-.29.65-.65s-.29-.65-.65-.65h-2.8c-.75 0-1.35.6-1.35 1.35zm4.8-10.6c0 .35-.29.65-.65.65h-2.8c-.75 0-1.35-.61-1.35-1.35V4.94c0-.35.29-.65.65-.65.35 0 .65.3.65.65v1.94l2.68-2.69c.26-.25.67-.25.92 0 .26.25.26.66 0 .92L17.11 7.8h1.94c.36 0 .65.29.65.65"/></svg>
